X:1
T:When You Come Back
T:When You Come Back
T:And You Will Come Back, There's The Whole World Waiting For You
T:Words and Music By GEORGE M. COHAN 
C:George M. Cohan
%%score 1 { ( 2 4 ) | 3 }
L:1/8
Q:1/4=120
M:2/4
K:Bb
V:1 treble nm="Voice"
V:2 treble nm="Piano"
V:4 treble 
V:3 bass 
V:1
"^Brightly (Not too fast)" z2 | z4 | z4 | z4 | z4 | z4 | z4 | z4 | z2 z!f! F | B2 B2 | B3 F | %11
w: ||||||||From|'Fris- co|Bay to|
w: ||||||||It's|rum, tum,|tum, the|
 B2 B2 | B3 F | B2 B2 | c f2 e | d2 B2 | B2 z G | c2 c2 | =B c2 d | c4- | c z GA | B2 B2 | B A2 G | %23
w: old Broad-|way, To-|day all|o- ver the|U. S.|A., We|know we're|fight- ing the|foe.|_ So we|all stand|stead- y and|
w: fife and|drum, So|march in|time for the|time has|come To|smash right|thru with a|bang.|_ With the|same old|spir- it when|
 AB =Bc- | c2 z F | B2 B2 | B3 F | B2 B2 | B3 F | B2 B2 | c f2 e | d2 B2 | B3 z | A4 | B2 G2 | %35
w: read- y to go,|_ We|know no|fear, we|know no|tear, And|all we|hear is the|Yank- ee|cheer.|I|heard a|
w: lib- er- ty rang,|_ To|win, be-|gin to|rush right|in, And|fly our|flag o- ver|old Ber-|lin.|Let's|let our|
 A2 A2 | B2 AG | A2 AA | B2 G2 | c4- | c z ||"^REFRAIN" F2 |: %42
w: girl- ie|say to her|boy as he|marched a-|way:|_|When|
w: mes- sage|be to the|Yank- ee a-|cross the|sea:|_||
[Q:1/4=120]"^Brightly  (But not fast)" B2 F2 | F2 AB | c2 F2 | F4 | c2 c>=B | cd e2 | df B2 | %49
w: you come|back, yes, when|you come|back,|You'll hear the|Yank- ee cry,|"At- a boy,|
w: |||||||
 B2 BA | G2 B2 | e2 e2 | e d2 B | F4 | =E G2 B | d2 cG | B A2 c | G z F2 | B2 B>c | d2 B2 | c3 A | %61
w: Jack!" And when|you re-|turn re-|mem- ber to|bring|Some lit- tle|thing that you|get from the|king. And|drop me a|line from|Ger- man-|
w: ||||||||||||
 F4 | c4 | ed cF | d4- | d z F2 | !>!B2 F2 | F2 AB | !>!c2 F2 | F2 AB |1 c2 c2 | c B2 A | B2 z2 | %73
w: y,|Do,|Yank- ee Doo- dle,|do;|_ When|you come|back, And you|will come|back, There's the|whole world|wait- ing for|you.|
w: ||||||||||||
 z2 F2 :|2 c2 e2 | e d2 c | B4- | B z z |] %78
w: When|whole world|wait- ing for|you.|_|
w: |||||
V:2
!f! !>![F,F]2 | !>![B,B]2 [F,F]2 | [F,F]2 [A,A][B,B] | !>![Cc]2 F2 | F2 [A,A][B,B] | %5
 !>![Cc]2 [Cc]2 | [CEFc] [B,EFB]2 [A,EFA] | [B,DFB](=E/F/ ^F/G/^G/A/ | .B) z .[Bdfb]!p! F | %9
!mf! [B,B]2 [B,B]2 | [B,B]3 F | [B,B]2 [B,B]2 | [B,B]3 F | [B,B]2 [B,B]2 | [CEFc] [FAf]2 [EAe] | %15
 [Dd]2 [B,B]2 | [B,B]3 G | [Cc]2 [Cc]2 | [=B,FG=B] [CFGc]2 [DFGd] | [Cc]4- | [Cc]2 [G,G][A,A] | %21
 [B,B]2 [B,B]2 | [B,D=EB] [A,CEA]2 [B,CEG] | [A,EFA][B,EFB] [=B,=B][CEFc]- | [CEFc]F/F/ FF | %25
 [B,B]2 [B,B]2 | [B,B]3 F | [B,B]2 [B,B]2 | [B,B]3 F | !>![B,B]2 [B,B]2 | [Cc] !>![FAf]2 [EAe] | %31
 [Dd]2 [B,B]2 | [B,B]4 | [A,A]4 | [B,B]2 [G,G]2 | [A,A]2 [A,A]2 | [B,B]2 [A,A][G,G] | %37
 [A,A]2 [A,A][A,A] | [B,B]2 [G,G]2 | [C_Ec]4- | .[CEc] z ||!p! F2 |:!mf! !>![B,B]2 [F,F]2 | %43
 [F,F]2 [A,A][B,B] | [Cc]2 F2 | F4 | [Cc]2 [Cc]>[=B,=B] | [CEc][DFd] [Ee]2 | [DFd][Ff] B2 | %49
 B2!<(! BA!<)! | G2 B2 | e2 e2 | [EBe] [DBd]2 [B,FB] | F4 |!<(! [B,C=E] [B,EG]2 [B,EB]!<)! | %55
 [Dd]2 [C_Ec][B,EG] | [B,_EB] [A,EA]2 [CEFc] |!>(! [A,EG] z [A,EF]2!>)! | [B,B]2 [B,B]>[Cc] | %59
 [Dd]2 [B,B]2 | [Cc]3 [A,A] | [F,F]4 | [Cc]4 | [EGe][DFd] [CEc]F | [Dd]4- | [Dd] z !>![A,CEF]2 | %66
 !>![B,B]2 [F,F]2 | [F,F]2 [A,A][B,B] | !>![Cc]2 F2 | F2 [A,A][B,B] |1 [Cc]2 [Cc]2 | %71
 [CEFc] [B,EFB]2 [A,EFA] | [B,DFB]!<(!(F/G/ F)(F/G/ | F)!<)! z F2 :|2 [Cc]2 [Ee]2 | %75
 [EGAe] [DFAd]2 [CEAc] | [B,DFB](=E/F/ ^F/G/^G/A/ | .B) z .[Bdfb] |] %78
V:3
 z2 | B,, z F,, z | B,, z [F,,F,][G,,G,] | [A,,A,] z [F,,F,] z | [C,,C,] z [F,,F,][G,,G,] | %5
 [A,,A,]2 [A,,A,]2 | [A,,A,] [G,,G,]2 [F,,F,] | [B,,F,](=E,/F,/ ^F,/G,/^G,/A,/ | %8
 .B,) z .[B,,,B,,] z | B,,2 A,,2 | G,,2 F,,2 | B,,2 A,,2 | G,,2 F,,2 | B,,2 A,,2 | G,,2 F,,2 | %15
 B,, z F,, z | B,, z G,, z | C, z G,, z | D, z G,, z | C, z G,, z | C, z z2 | [G,,G,] z [C,,C,] z | %22
 [G,,G,] z [C,,C,] z | [F,,F,][G,,G,] [^G,,^G,][A,,A,]- | [A,,A,]F,/F,/ F,F, | B,,2 A,,2 | %26
 G,,2 F,,2 | B,,2 A,,2 | G,,2 F,,2 | B,,2 A,,2 | G,,2 F,,2 | B,, z F,, z | B,, z F,, z | %33
 [F,,F,] z [C,,C,] z | [G,,G,] z [C,,C,] z | [F,,F,] z [C,,C,] z | [G,,G,] z [C,,C,] z | %37
 [F,,F,] z [^F,,^F,]2 | [G,,G,]2 [C,,C,]2 | !arpeggio![F,,C,A,].F,/.F,/ .F,.F, | .F, z || z2 |: %42
 B,, z F,, z | B,, z F,,G,, | A,, z F,, z | C, z F,, z | A,, z F,, z | A,, z F,, z | B,, z F,, z | %49
 B,, z D,2 | E,2 B,,2 | G,2 _G,2 | _G, F,2 D, | B,, z F,, z | [G,,G,] z [C,,C,] z | %55
 [G,,G,] z [C,,C,] z | [G,,G,] [F,,F,]2 [A,,A,] | [C,G,] z [F,,F,]2 | B,, z F,, z | B,, z F,, z | %60
 A,, z F,, z | C, z F,, z | A,, z F,, z | A,, z F,, z | B,, z F,, z | B,, z [F,,F,]2 | %66
 B,, z F,, z | B,, z [F,,F,][G,,G,] | [A,,A,] z [F,,F,] z | [C,,C,] z [F,,F,][G,,G,] |1 %70
 [A,,A,]2 [A,,A,]2 | [A,,A,] [G,,G,]2 [F,,F,] | [B,,F,](F,/G,/ F,)(F,/G,/ | F,) z z2 :|2 %74
 [A,,A,] z [F,,F,] z | [A,,A,] z [F,,F,] z | [B,,F,](=E,/F,/ ^F,/G,/^G,/A,/ | .B,) z .[B,,,B,,] |] %78
V:4
 x2 | z [DF] z [B,D] | z [B,D] x2 | z [EF] z [A,CE] | z [A,CE] x2 | z [EF] z [EF] | x4 | x4 | x4 | %9
 z [DF] z [DF] | z [DF] z [B,D] | z [DF] z [DF] | z [DF] z [B,D] | z [DF] z [DF] | x4 | %15
 z [FB] z [DF] | z [DF] z [=B,F] | z [EG] z [EG] | x4 | z [EG]/[EG]/ z [EG] | z [EG] x2 | %21
 z [D=E] z [DE] | x4 | x4 | x4 | z [DF] z [DF] | z [DF] z [B,D] | z [DF] z [DF] | z [DF] z [B,D] | %29
 z [DF] z [DF] | x4 | z [FB] z [DF] | z [DF] z [DF] | z [CF] z [CF] | z [C=E] z [CE] | %35
 z [CF] z [CF] | z [D=E] z2 | z [CF] z [C^D] | z [D=E] z [B,E] | F.F/.F/ .F.F | .F x || x2 |: %42
 z [DF] z [B,D] | z [B,D] x2 | z [EF] z [A,CE] | z [A,CE] z [A,CE] | z [EF] z [EA] | x2 z [GA] | %48
 x2 z [DF] | z [DF] [C^F]2 | z [B,E] z [B,EG] | z [EB] z [EB] | x4 | z [B,D]/[B,D]/ [B,D][B,D] | %54
 x4 | z [=EB] x2 | x4 | x4 | z [DF] x2 | z [FB] z [DF] | z [EF] z2 | z [A,E] z [A,E] | %62
 z [EF] z [EA] | x4 | z [FB]/[FB]/ z [FB] | z [FB] x2 | z [DF] z [B,D] | z [B,D] x2 | %68
 z [EF] z [A,CE] | z [A,CE] x2 |1 z [EF] z [EF] | x4 | x4 | x4 :|2 z [EF] z [GA] | x4 | x4 | x3 |] %78

